package/feeds/vuci/vuci-app-io-ui/pinout-icons/power_5pin.svg

<svg xmlns="http://www.w3.org/2000/svg" width="362" height="227" fill="none"><g clip-path="url(#a)"><mask id="b" fill="#fff"><path d="M0 0h362v227H0z"/></mask><path fill="#E2E7EE" d="M0 0h362v227H0z"/><path fill="#fff" stroke="#000" d="M362.5 155.5v71H-.5v-71z"/><path fill="#333" d="M145.295 188.93c0 2.274-.692 4.019-2.087 5.226-1.394 1.206-3.37 1.804-5.938 1.804h-1.886v7.529H131v-21.16h6.601c2.508 0 4.414.549 5.718 1.655q1.956 1.658 1.956 4.946zm-9.901 3.361h1.444c1.345 0 2.358-.269 3.03-.818s1.003-1.336 1.003-2.383q0-1.57-.843-2.333c-.561-.499-1.444-.748-2.638-.748h-1.996zm32.251.588c0 3.5-.853 6.193-2.548 8.077s-4.133 2.822-7.303 2.822-5.598-.937-7.303-2.822c-1.705-1.884-2.548-4.587-2.548-8.107s.853-6.212 2.548-8.067c1.705-1.855 4.143-2.782 7.323-2.782s5.608.937 7.293 2.812q2.528 2.812 2.528 8.077zm-15.087 0c0 2.363.441 4.148 1.314 5.335.882 1.197 2.187 1.795 3.932 1.795 3.501 0 5.247-2.373 5.247-7.13s-1.736-7.15-5.217-7.15q-2.618-.002-3.942 1.805c-.883 1.207-1.334 2.982-1.334 5.345m39.203 10.61h-4.996l-2.799-11.118c-.1-.399-.281-1.217-.531-2.453-.251-1.237-.392-2.075-.432-2.493q-.09.777-.421 2.513a66 66 0 0 1-.522 2.463l-2.789 11.088h-4.975l-5.277-21.16h4.314l2.648 11.547c.462 2.134.793 3.979 1.003 5.545.06-.549.191-1.406.392-2.553.2-1.147.391-2.044.571-2.683l3.01-11.856h4.143l3.009 11.856c.131.529.301 1.337.492 2.434q.3 1.63.451 2.812c.09-.748.251-1.696.452-2.812a69 69 0 0 1 .561-2.733l2.629-11.547h4.313l-5.266 21.16zm19.451 0h-11.908v-21.16h11.908v3.68h-7.524v4.646h7.002v3.68h-7.002v5.455h7.524zm8.386-8.117v8.117h-4.384v-21.16h6.029c2.809 0 4.886.519 6.24 1.566 1.344 1.047 2.026 2.632 2.026 4.766 0 1.247-.331 2.353-1.003 3.321-.672.967-1.615 1.725-2.839 2.283 3.11 4.757 5.136 7.828 6.079 9.224h-4.865l-4.936-8.117zm0-3.65h1.414c1.385 0 2.408-.239 3.07-.708s.993-1.216.993-2.233-.341-1.715-1.013-2.144c-.672-.419-1.715-.638-3.13-.638h-1.334z"/></g><path fill="#333" d="M0 0v-1h-1v1zm362 0h1v-1h-1zM0 0v1h362v-2H0zm362 0h-1v227h2V0zM0 227h1V0h-2v227z" mask="url(#b)"/><path fill="#DD4B39" stroke="#111729" d="M30 39v70.186c0 .449.365.814.814.814h4.795a8.77 8.77 0 0 1 5.9 2.281l3.311 3.01a18.106 18.106 0 0 0 24.36 0l3.311-3.01a8.77 8.77 0 0 1 5.9-2.281h4.795c.45 0 .814-.365.814-.814V39a1 1 0 0 0-1-1H31a1 1 0 0 0-1 1Z"/><path fill="#111729" stroke="#111729" d="M92 39v70.186c0 .449.365.814.814.814h4.796a8.77 8.77 0 0 1 5.899 2.281l3.311 3.01a18.11 18.11 0 0 0 24.36 0l3.311-3.01a8.77 8.77 0 0 1 5.9-2.281h4.795a.815.815 0 0 0 .814-.814V39a1 1 0 0 0-1-1H93a1 1 0 0 0-1 1Z"/><path fill="#499C6C" stroke="#111729" d="M154 39v70.186c0 .449.365.814.814.814h4.795a8.77 8.77 0 0 1 5.9 2.281l3.311 3.01a18.11 18.11 0 0 0 24.36 0l3.311-3.01a8.77 8.77 0 0 1 5.9-2.281h4.795a.815.815 0 0 0 .814-.814V39a1 1 0 0 0-1-1h-52a1 1 0 0 0-1 1Z"/><path fill="#DD4B39" stroke="#111729" d="M216 39v70.186c0 .449.365.814.814.814h4.795a8.77 8.77 0 0 1 5.9 2.281l3.311 3.01a18.11 18.11 0 0 0 24.36 0l3.311-3.01a8.77 8.77 0 0 1 5.9-2.281h4.795a.815.815 0 0 0 .814-.814V39a1 1 0 0 0-1-1h-52a1 1 0 0 0-1 1Z"/><path fill="#111729" stroke="#111729" d="M278 39v70.186c0 .449.365.814.814.814h4.795a8.77 8.77 0 0 1 5.9 2.281l3.311 3.01a18.11 18.11 0 0 0 24.36 0l3.311-3.01a8.77 8.77 0 0 1 5.9-2.281h4.795a.815.815 0 0 0 .814-.814V39a1 1 0 0 0-1-1h-52a1 1 0 0 0-1 1Z"/><path fill="#fff" d="M60.78 86.84h-3.67V72.09c0-1.76.04-3.16.12-4.19-.24.25-.53.53-.88.83q-.525.45-3.51 2.88L51 69.28 57.72 64h3.06zm67.71.33h-15.48v-2.78l5.89-5.92c1.74-1.78 2.89-3.04 3.46-3.79.57-.74.98-1.45 1.24-2.1.26-.66.39-1.36.39-2.11 0-1.03-.31-1.84-.93-2.44-.62-.59-1.48-.89-2.57-.89-.88 0-1.72.16-2.54.48s-1.76.91-2.84 1.75l-1.98-2.42c1.27-1.07 2.5-1.83 3.7-2.28s2.47-.67 3.83-.67c2.12 0 3.83.55 5.11 1.66s1.92 2.6 1.92 4.48c0 1.03-.19 2.01-.55 2.94-.37.93-.94 1.88-1.7 2.87s-2.04 2.32-3.82 3.99l-3.97 3.84v.16h10.84zm57.93-17.6c0 1.45-.42 2.65-1.27 3.62-.84.96-2.03 1.61-3.56 1.95v.12c1.83.23 3.21.8 4.12 1.71q1.38 1.365 1.38 3.63c0 2.2-.78 3.89-2.33 5.09-1.55 1.19-3.76 1.79-6.62 1.79-2.53 0-4.67-.41-6.41-1.23v-3.27c.97.48 1.99.85 3.08 1.11q1.62.39 3.12.39c1.77 0 3.09-.33 3.97-.98s1.31-1.67 1.31-3.05c0-1.22-.48-2.11-1.45-2.69-.97-.57-2.49-.86-4.56-.86h-1.98v-2.98h2.02c3.65 0 5.47-1.26 5.47-3.78 0-.98-.32-1.73-.95-2.27-.64-.53-1.57-.8-2.81-.8-.87 0-1.7.12-2.5.37s-1.75.72-2.84 1.43l-1.8-2.56c2.09-1.54 4.53-2.31 7.3-2.31 2.3 0 4.1.5 5.39 1.48 1.29.99 1.94 2.35 1.94 4.09zm64.67 12.61h-3.08v4.98h-3.58v-4.98h-10.44v-2.83l10.44-15.09h3.58v14.88h3.08v3.05zm-6.66-3.05V73.4c0-2.04.05-3.71.16-5.02h-.12c-.29.69-.75 1.52-1.38 2.5l-5.67 8.25h7.02zm61.11-6.24c2.3 0 4.12.61 5.47 1.83s2.02 2.88 2.02 4.98c0 2.44-.76 4.34-2.29 5.71s-3.7 2.05-6.51 2.05c-2.55 0-4.56-.41-6.02-1.23V82.9q1.26.72 2.91 1.11c1.09.26 2.11.39 3.05.39q2.49 0 3.78-1.11c.86-.74 1.3-1.82 1.3-3.25 0-2.73-1.74-4.09-5.22-4.09-.49 0-1.09.05-1.81.15s-1.35.21-1.89.34l-1.64-.97.88-11.16h11.88v3.27h-8.64l-.52 5.66c.36-.06.81-.13 1.34-.22.53-.08 1.17-.12 1.93-.12h-.02z"/><defs><clipPath id="a"><path fill="#fff" d="M0 0h362v227H0z"/></clipPath></defs></svg>

<svg width="362" height="227" viewBox="0 0 362 227" fill="none" xmlns="http://www.w3.org/2000/svg">
<g clip-path="url(#clip0_22076_65)">
<mask id="path-1-inside-1_22076_65" fill="white">
<path d="M0 0H362V227H0V0Z"/>
</mask>
<path d="M0 0H362V227H0V0Z" fill="#E2E7EE"/>
<path d="M362.5 155.5V226.5H-0.5V155.5H362.5Z" fill="white" stroke="black"/>
<path d="M145.295 188.93C145.295 191.204 144.603 192.949 143.208 194.156C141.814 195.362 139.838 195.96 137.27 195.96H135.384V203.489H131V182.329H137.601C140.109 182.329 142.015 182.878 143.319 183.984C144.623 185.091 145.275 186.737 145.275 188.93H145.295ZM135.394 192.291H136.838C138.183 192.291 139.196 192.022 139.868 191.473C140.54 190.925 140.871 190.137 140.871 189.09C140.871 188.043 140.59 187.265 140.028 186.757C139.467 186.258 138.584 186.009 137.39 186.009H135.394V192.291Z" fill="#333333"/>
<path d="M167.645 192.879C167.645 196.379 166.792 199.072 165.097 200.956C163.402 202.841 160.964 203.778 157.794 203.778C154.624 203.778 152.196 202.841 150.491 200.956C148.786 199.072 147.943 196.369 147.943 192.849C147.943 189.329 148.796 186.637 150.491 184.782C152.196 182.927 154.634 182 157.814 182C160.994 182 163.422 182.937 165.107 184.812C166.792 186.687 167.635 189.379 167.635 192.889L167.645 192.879ZM152.558 192.879C152.558 195.242 152.999 197.027 153.872 198.214C154.754 199.411 156.059 200.009 157.804 200.009C161.305 200.009 163.051 197.636 163.051 192.879C163.051 188.123 161.315 185.729 157.834 185.729C156.089 185.729 154.775 186.328 153.892 187.534C153.009 188.741 152.558 190.516 152.558 192.879Z" fill="#333333"/>
<path d="M191.761 203.489H186.765L183.966 192.371C183.866 191.972 183.685 191.154 183.435 189.918C183.184 188.681 183.043 187.843 183.003 187.425C182.943 187.943 182.803 188.781 182.582 189.938C182.351 191.094 182.181 191.912 182.06 192.401L179.271 203.489H174.296L169.019 182.329H173.333L175.981 193.876C176.443 196.01 176.774 197.855 176.984 199.421C177.044 198.872 177.175 198.015 177.376 196.868C177.576 195.721 177.767 194.824 177.947 194.185L180.957 182.329H185.1L188.109 194.185C188.24 194.714 188.41 195.522 188.601 196.619C188.801 197.705 188.952 198.643 189.052 199.431C189.142 198.683 189.303 197.735 189.504 196.619C189.714 195.492 189.905 194.584 190.065 193.886L192.694 182.339H197.007L191.741 203.499L191.761 203.489Z" fill="#333333"/>
<path d="M211.212 203.489H199.304V182.329H211.212V186.009H203.688V190.655H210.69V194.335H203.688V199.79H211.212V203.489Z" fill="#333333"/>
<path d="M219.598 195.372V203.489H215.214V182.329H221.243C224.052 182.329 226.129 182.848 227.483 183.895C228.827 184.942 229.509 186.527 229.509 188.661C229.509 189.908 229.178 191.014 228.506 191.982C227.834 192.949 226.891 193.707 225.667 194.265C228.777 199.022 230.803 202.093 231.746 203.489H226.881L221.945 195.372H219.608H219.598ZM219.598 191.722H221.012C222.397 191.722 223.42 191.483 224.082 191.014C224.744 190.546 225.075 189.798 225.075 188.781C225.075 187.764 224.734 187.066 224.062 186.637C223.39 186.218 222.347 185.999 220.932 185.999H219.598V191.712V191.722Z" fill="#333333"/>
</g>
<path d="M0 0V-1H-1V0H0ZM362 0H363V-1H362V0ZM0 0V1H362V0V-1H0V0ZM362 0H361V227H362H363V0H362ZM0 227H1V0H0H-1V227H0Z" fill="#333333" mask="url(#path-1-inside-1_22076_65)"/>
<path d="M30 39V109.186C30 109.635 30.3646 110 30.8143 110H35.6095C37.7911 110 39.8945 110.813 41.5088 112.281L44.8204 115.291C48.1533 118.321 52.4958 120 57 120C61.5042 120 65.8467 118.321 69.1796 115.291L72.4912 112.281C74.1055 110.813 76.2089 110 78.3905 110H83.1856C83.6354 110 84 109.635 84 109.186V39C84 38.4477 83.5523 38 83 38H66H48H31C30.4477 38 30 38.4477 30 39Z" fill="#DD4B39" stroke="#111729"/>
<path d="M92 39V109.186C92 109.635 92.3646 110 92.8143 110H97.6095C99.7911 110 101.894 110.813 103.509 112.281L106.82 115.291C110.153 118.321 114.496 120 119 120C123.504 120 127.847 118.321 131.18 115.291L134.491 112.281C136.106 110.813 138.209 110 140.391 110H145.186C145.635 110 146 109.635 146 109.186V39C146 38.4477 145.552 38 145 38H128H110H93C92.4477 38 92 38.4477 92 39Z" fill="#111729" stroke="#111729"/>
<path d="M154 39V109.186C154 109.635 154.365 110 154.814 110H159.609C161.791 110 163.894 110.813 165.509 112.281L168.82 115.291C172.153 118.321 176.496 120 181 120C185.504 120 189.847 118.321 193.18 115.291L196.491 112.281C198.106 110.813 200.209 110 202.391 110H207.186C207.635 110 208 109.635 208 109.186V39C208 38.4477 207.552 38 207 38H190H172H155C154.448 38 154 38.4477 154 39Z" fill="#499C6C" stroke="#111729"/>
<path d="M216 39V109.186C216 109.635 216.365 110 216.814 110H221.609C223.791 110 225.894 110.813 227.509 112.281L230.82 115.291C234.153 118.321 238.496 120 243 120C247.504 120 251.847 118.321 255.18 115.291L258.491 112.281C260.106 110.813 262.209 110 264.391 110H269.186C269.635 110 270 109.635 270 109.186V39C270 38.4477 269.552 38 269 38H252H234H217C216.448 38 216 38.4477 216 39Z" fill="#DD4B39" stroke="#111729"/>
<path d="M278 39V109.186C278 109.635 278.365 110 278.814 110H283.609C285.791 110 287.894 110.813 289.509 112.281L292.82 115.291C296.153 118.321 300.496 120 305 120C309.504 120 313.847 118.321 317.18 115.291L320.491 112.281C322.106 110.813 324.209 110 326.391 110H331.186C331.635 110 332 109.635 332 109.186V39C332 38.4477 331.552 38 331 38H314H296H279C278.448 38 278 38.4477 278 39Z" fill="#111729" stroke="#111729"/>
<path d="M60.78 86.84H57.11V72.09C57.11 70.33 57.15 68.93 57.23 67.9C56.99 68.15 56.7 68.43 56.35 68.73C56 69.03 54.83 69.99 52.84 71.61L51 69.28L57.72 64H60.78V86.84Z" fill="white"/>
<path d="M128.49 87.17H113.01V84.39L118.9 78.47C120.64 76.69 121.79 75.43 122.36 74.68C122.93 73.94 123.34 73.23 123.6 72.58C123.86 71.92 123.99 71.22 123.99 70.47C123.99 69.44 123.68 68.63 123.06 68.03C122.44 67.44 121.58 67.14 120.49 67.14C119.61 67.14 118.77 67.3 117.95 67.62C117.13 67.94 116.19 68.53 115.11 69.37L113.13 66.95C114.4 65.88 115.63 65.12 116.83 64.67C118.03 64.22 119.3 64 120.66 64C122.78 64 124.49 64.55 125.77 65.66C127.05 66.77 127.69 68.26 127.69 70.14C127.69 71.17 127.5 72.15 127.14 73.08C126.77 74.01 126.2 74.96 125.44 75.95C124.68 76.94 123.4 78.27 121.62 79.94L117.65 83.78V83.94H128.49V87.17Z" fill="white"/>
<path d="M186.42 69.57C186.42 71.02 186 72.22 185.15 73.19C184.31 74.15 183.12 74.8 181.59 75.14V75.26C183.42 75.49 184.8 76.06 185.71 76.97C186.63 77.88 187.09 79.09 187.09 80.6C187.09 82.8 186.31 84.49 184.76 85.69C183.21 86.88 181 87.48 178.14 87.48C175.61 87.48 173.47 87.07 171.73 86.25V82.98C172.7 83.46 173.72 83.83 174.81 84.09C175.89 84.35 176.93 84.48 177.93 84.48C179.7 84.48 181.02 84.15 181.9 83.5C182.78 82.85 183.21 81.83 183.21 80.45C183.21 79.23 182.73 78.34 181.76 77.76C180.79 77.19 179.27 76.9 177.2 76.9H175.22V73.92H177.24C180.89 73.92 182.71 72.66 182.71 70.14C182.71 69.16 182.39 68.41 181.76 67.87C181.12 67.34 180.19 67.07 178.95 67.07C178.08 67.07 177.25 67.19 176.45 67.44C175.65 67.69 174.7 68.16 173.61 68.87L171.81 66.31C173.9 64.77 176.34 64 179.11 64C181.41 64 183.21 64.5 184.5 65.48C185.79 66.47 186.44 67.83 186.44 69.57H186.42Z" fill="white"/>
<path d="M251.09 82.18H248.01V87.16H244.43V82.18H233.99V79.35L244.43 64.26H248.01V79.14H251.09V82.19V82.18ZM244.43 79.13V73.4C244.43 71.36 244.48 69.69 244.59 68.38H244.47C244.18 69.07 243.72 69.9 243.09 70.88L237.42 79.13H244.44H244.43Z" fill="white"/>
<path d="M305.54 72.8901C307.84 72.8901 309.66 73.5001 311.01 74.7201C312.36 75.9401 313.03 77.6001 313.03 79.7001C313.03 82.1401 312.27 84.0401 310.74 85.4101C309.21 86.7801 307.04 87.4601 304.23 87.4601C301.68 87.4601 299.67 87.0501 298.21 86.2301V82.9001C299.05 83.3801 300.02 83.7501 301.12 84.0101C302.21 84.2701 303.23 84.4001 304.17 84.4001C305.83 84.4001 307.09 84.0301 307.95 83.2901C308.81 82.5501 309.25 81.4701 309.25 80.0401C309.25 77.3101 307.51 75.9501 304.03 75.9501C303.54 75.9501 302.94 76.0001 302.22 76.1001C301.5 76.2001 300.87 76.3101 300.33 76.4401L298.69 75.4701L299.57 64.3101H311.45V67.5801H302.81L302.29 73.2401C302.65 73.1801 303.1 73.1101 303.63 73.0201C304.16 72.9401 304.8 72.9001 305.56 72.9001H305.54V72.8901Z" fill="white"/>
<defs>
<clipPath id="clip0_22076_65">
<path d="M0 0H362V227H0V0Z" fill="white"/>
</clipPath>
</defs>
</svg>
